packages/core/src/svgs/stg.svg

<svg width="24" height="24" viewBox="0 0 24 24" fill="none" xmlns="http://www.w3.org/2000/svg">
<g clip-path="url(#clip0_31_19383)">
<path d="M0 0H24V24H0V0Z" fill="url(#paint0_linear_31_19383)"/>
<path d="M5.18996 10.9545C5.39613 10.6699 5.69445 10.4655 6.03425 10.3759C6.95139 10.1445 8.32711 9.22307 8.78568 8.7645C9.24425 8.30164 10.1614 6.45878 10.3928 5.99592L10.4185 5.94449C10.4957 5.77307 10.6671 5.40449 11.0271 5.14307C9.55865 5.35539 8.19774 6.03542 7.14627 7.08225C6.0948 8.12909 5.40877 9.48698 5.18996 10.9545ZM5.14282 12.6216C5.28298 14.194 5.95805 15.6708 7.0554 16.8055C8.15276 17.9403 9.60605 18.6645 11.1728 18.8574C10.9414 18.6559 10.8043 18.3731 10.6885 18.1245L10.62 17.9831L10.5171 17.7559C10.2471 17.1302 9.56997 15.5788 8.78568 14.9874C7.86854 14.2974 6.95139 13.6031 6.26139 13.3716C5.83282 13.2302 5.40425 12.9988 5.14282 12.6216ZM12.9171 18.8445C14.4776 18.6301 15.9177 17.8883 16.9983 16.7422C18.0789 15.5961 18.7348 14.1149 18.8571 12.5445C18.6269 12.8313 18.3143 13.0407 17.9614 13.1445C17.2757 13.3716 15.6685 14.5245 15.21 14.9874C14.4648 15.9 13.8463 16.9091 13.3714 17.9874C13.2925 18.306 13.1365 18.6004 12.9171 18.8445ZM18.81 11.0102C18.6018 9.53136 17.9194 8.15997 16.8653 7.10202C15.8112 6.04407 14.4423 5.35667 12.9643 5.14307C13.234 5.35308 13.4451 5.62911 13.5771 5.94449L13.6028 5.99592L13.77 6.37307C14.0357 6.99449 14.4728 8.02735 15.21 8.7645C15.9385 9.50164 16.9671 9.94307 17.5885 10.2088C17.7428 10.2774 17.8714 10.3288 17.9614 10.3802C18.2271 10.5088 18.57 10.7231 18.81 11.0102Z" fill="#8E8E8E"/>
<path d="M12.493 8.47702C12.4629 8.38239 12.4037 8.29968 12.3238 8.24068C12.2439 8.18168 12.1475 8.14941 12.0482 8.14846C11.9489 8.14751 11.8519 8.17793 11.7709 8.23539C11.6899 8.29285 11.6291 8.37441 11.5972 8.46845C11.365 9.19175 10.9593 9.84722 10.4154 10.3776C9.87155 10.908 9.20613 11.2972 8.47724 11.5113C8.38414 11.5424 8.30306 11.6017 8.2453 11.6811C8.18755 11.7604 8.15599 11.8558 8.15505 11.954C8.15411 12.0521 8.18382 12.1481 8.24004 12.2285C8.29626 12.309 8.37618 12.3699 8.46867 12.4027C9.19197 12.635 9.84744 13.0407 10.3778 13.5846C10.9082 14.1284 11.2975 14.7938 11.5115 15.5227C11.5426 15.6158 11.6019 15.6969 11.6813 15.7547C11.7606 15.8124 11.856 15.844 11.9542 15.8449C12.0523 15.8459 12.1483 15.8162 12.2288 15.7599C12.3092 15.7037 12.3701 15.6238 12.403 15.5313C12.6352 14.808 13.0409 14.1525 13.5848 13.6221C14.1286 13.0917 14.7941 12.7025 15.523 12.4884C15.6161 12.4574 15.6971 12.398 15.7549 12.3187C15.8127 12.2393 15.8442 12.1439 15.8451 12.0458C15.8461 11.9476 15.8164 11.8517 15.7602 11.7712C15.7039 11.6908 15.624 11.6299 15.5315 11.597C14.8082 11.3648 14.1528 10.959 13.6224 10.4152C13.0919 9.87132 12.7027 9.20591 12.4887 8.47702H12.493Z" fill="white"/>
</g>
<defs>
<linearGradient id="paint0_linear_31_19383" x1="4.46571" y1="4.16143" x2="29.2071" y2="32.58" gradientUnits="userSpaceOnUse">
<stop stop-color="#1A1E21"/>
<stop offset="1" stop-color="#06060A"/>
</linearGradient>
<clipPath id="clip0_31_19383">
<rect width="24" height="24" fill="white"/>
</clipPath>
</defs>
</svg>

<svg xmlns="http://www.w3.org/2000/svg" width="24" height="24" fill="none" viewBox="0 0 24 24"><g clip-path="url(#a)"><path fill="url(#b)" d="M0 0h24v24H0z"/><path fill="#8E8E8E" d="M5.19 10.955c.206-.285.504-.49.844-.58.917-.23 2.293-1.152 2.752-1.61.458-.463 1.375-2.306 1.607-2.77l.025-.05c.078-.172.25-.54.61-.802a6.9 6.9 0 0 0-5.838 5.812m-.047 1.667a6.9 6.9 0 0 0 6.03 6.235c-.232-.201-.369-.484-.485-.732l-.068-.142-.103-.227c-.27-.626-.947-2.177-1.731-2.769-.917-.69-1.835-1.384-2.525-1.615-.428-.142-.857-.373-1.118-.75m7.774 6.223a6.9 6.9 0 0 0 5.94-6.3 1.8 1.8 0 0 1-.896.6c-.685.227-2.292 1.38-2.751 1.842a13 13 0 0 0-1.839 3 2 2 0 0 1-.454.858m5.893-7.835a6.9 6.9 0 0 0-5.846-5.867c.27.21.481.486.613.801l.026.052.167.377c.266.621.703 1.654 1.44 2.391.728.738 1.757 1.18 2.378 1.445.155.068.283.12.373.171.266.129.609.343.849.63"/><path fill="#fff" d="M12.493 8.477a.471.471 0 0 0-.896-.009 4.65 4.65 0 0 1-3.12 3.043.471.471 0 0 0-.008.892 4.65 4.65 0 0 1 3.043 3.12.472.472 0 0 0 .891.008 4.65 4.65 0 0 1 3.12-3.043.471.471 0 0 0 .008-.891 4.65 4.65 0 0 1-3.042-3.12z"/></g><defs><linearGradient id="b" x1="4.466" x2="29.207" y1="4.161" y2="32.58" gradientUnits="userSpaceOnUse"><stop stop-color="#1A1E21"/><stop offset="1" stop-color="#06060A"/></linearGradient><clipPath id="a"><path fill="#fff" d="M0 0h24v24H0z"/></clipPath></defs></svg>
